X: 38554
T: Sticks Pass
R: jig
M: 6/8
K: Dmajor
~B3 AFE|D3 DB,A,|D3 DB,A,|DEF DFA|
~B3 AFE|~D3 D'3|GEG FDF|ECA, A,3:|
~B3 AFD|D'3 AFD|A,B,D EFA|~B3 AFD|
~B3 AFE|Dz F zAz|GEG FDF|ECA, A,3:|

